X: 399
T: Mozarts Waltz
%R: waltz
Z: 2014 John Chambers <jc:trillian.mit.edu>
B: Preston "Twenty four Country Dances for the Year 1800" p.180 #1
F: http://www.vwml.org/browse/browse-collections-dance-tune-books/browse-prestons1800# 2014-8-10
N: Added rest at start of 3rd strain to fix the rhythm.
M: 3/8
L: 1/16
K: G
D2 |\
G2G2D2 | G2G2D2 | G2G2D2 | G4GA |\
B2B2A2 | B2B2A2 | B2B2A2 | B4Bc |\
d2g2d2 | d2B2d2 |
c2A2c2 | c2B2 Bc |\
d2g2d2 | d2B2c2 | c2A2c2 | c2B2A2 |\
B2B2B2 | A2A2A2 | ^c2c2c2 | d4D2 |
G2GABG | E2E2E2 | c2A2F2 | G4 |: B2 |\
c2cBcd | B2B2d2 | c2cBcd | B4B2 |\
c2cBcd | d2B2d2 |
c2B2A2 | G4 :| z2 |\
GABcdc | B2B2A2 | GABcdc | B2B2A2 |\
G4d2 | e2gege | d2B2d2 | c2A2F2 |\
G4 |]
% - - - - - - - - - - - - - - - - - - - - - - - - -
%%begintext align
%% Cast of 2 Cu: up again, lead down the middle, up
%% again, Cast off, Allemand with your Partner,
%% and right and left.
%%endtext
% - - - - - - - - - - - - - - - - - - - - - - - - -

%%sep 1 1 500
%%sep 1 1 500
